X:1
T: The Galty Rangers
C:
R:Reel
Q: 232
K:D
M:4/4
L:1/8
|:dB|A2 FD F2 ED|F2 FE FA dB|A2 FD F2 ED|EB BA FE EF|
A2 FD F2 ED|F2 FE FA dB|A2 FD F2 ED|FA EG FD D2|
FA AB AG FG|AB de fe e2|fe dc Bc dB|AB de fe dB|
FA AB AG FG|AB de fe e2|fe dc Bc dB|AB de d2:|
